X:1
T:Title
%%score { ( 1 3 ) | ( 2 4 ) }
L:1/8
M:4/4
K:Bb
V:1 treble nm="Grand Piano"
V:3 treble 
V:2 bass 
V:4 bass 
V:1
 z4 z2[Q:1/4=110] [DF]2 | [DB]2 [DB]2 [DB]2 F2 | G2 G2 G2 G2 | F2 [DFB]2 A2 B2 |[M:3/4] c3 d c2 | %5
[M:1/4] F2 |[M:4/4] [DB]2 [DB]2 [DB]2 [B,FA]2 | %7
[M:9/8] [B,EG]2 [B,EG]- [B,EG] [B,GB]2- [B,GB] [B,EG]2 |[M:4/4] [B,F]2 [B,DB]2 [Fd]2 [Ec]2 | %9
[M:3/4] [B,DB]6 |[M:1/4] z2 |[M:4/4] z2 [DF]2 [DF]2 B2 | c6 z2 | d2 [B,FB]2 [B,EG]2 [EGc]2 | %14
[M:3/4] [DB]3- [DB]/ (3z/4 c/4-[Bc]/4 A2 |[M:1/4] z2 |[M:4/4] z2 [B,DF]2 [B,DF]2 F2 | %17
[M:9/8] z2 E- E [GB]2- [GB] G2 |[M:4/4] F2 [DB]2 [Fd]2 [Ec]2 |[M:7/8] B-B-B- B- B3 |] %20
V:2
 z4 z2 [B,,B,]2 | [B,,B,]2 [B,,F,]2 [B,,F,]2 [D,B,]2 | [E,B,E]2 [E,B,E]2 [E,B,E]2 [E,B,E]2 | %3
 [D,B,]2 B,,2 [F,CF]2 [F,DF]2 |[M:3/4] [F,A,F]3 [F,B,F] [F,A,F]2 |[M:1/4] [F,A,]2 | %6
[M:4/4] [B,,B,]2 [B,,F,]2 [B,,F,]2 D,2 |[M:9/8] E,2 E,- E, E,2- E, E,2 | %8
[M:4/4] D,2 B,,2 [F,B,]2 [F,A,]2 |[M:3/4] B,,6 |[M:1/4][K:treble] F2 |[M:4/4] B6[K:bass] z2 | %12
 z2[K:treble] [F,CF]2 [F,CF]2 [F,A,F]2 | [B,F]2[K:bass] D,2 E,2 C,2 | %14
[M:3/4] z2 z z/ E/[K:treble] C2 |[M:1/4] F2 |[M:4/4] B6[K:bass] z2 | %17
[M:9/8] z2 [E,B,]- [E,B,] [E,B,]2- [E,B,] [E,B,E]2 |[M:4/4] [D,B,]2 [B,,B,]2 [F,B,]2 [F,A,]2 | %19
[M:7/8] z2 G,2 F,3 |] %20
V:3
 x8 | x8 | x8 | x8 |[M:3/4] x6 |[M:1/4] z E |[M:4/4] x8 |[M:9/8] x9 |[M:4/4] x8 |[M:3/4] x6 | %10
[M:1/4] x2 |[M:4/4] x8 | z2 A2 A2 c2 | x8 |[M:3/4] F3- F/->[DF-]/ F2 |[M:1/4] x2 |[M:4/4] x8 | %17
[M:9/8] .G6 z3 |[M:4/4] x8 |[M:7/8] [B,D]2 E2 D3 |] %20
V:4
 x8 | x8 | x8 | x8 |[M:3/4] x6 |[M:1/4] x2 |[M:4/4] x8 |[M:9/8] x9 |[M:4/4] x8 |[M:3/4] x6 | %10
[M:1/4][K:treble] x2 |[M:4/4] z2[K:bass] B,,2 B,,2 z2 | x2[K:treble] x6 | x2[K:bass] x6 | %14
[M:3/4] F,6[K:treble] |[M:1/4] x2 |[M:4/4] z2[K:bass] B,,2 B,,2 z2 |[M:9/8] x9 |[M:4/4] x8 | %19
[M:7/8] B,,-B,,-B,,- B,,- B,,3 |] %20

